X: 158
T: Jiaofu ge
%%abc-version 2.0
%%abcx-abcm2ps-target-version 5.9.1 (29 Sep 2008)
%%abc-creator hum2abc beta
%%abcx-conversion-date 2013/10/02 07:52:29
%%abc-edited-by Helmut Schaffrath
%%humdrum-veritas 1659910326
%%humdrum-veritas-data 1505312586
%%continueall 1
%%barnumbers 0
L: 1/8
M: 2/4
K: Bb
c'4 [I:setbarnb 1]| 
g4 | 
c' f f f/ g/ | 
b g/ b/c'2 | 
g b e c | 
f4 | 
c' f' c' b | 
g f/ g/ c c | 
c'4 | 
g b e f/ e/ | 
c4 |]  



